icons/gamemakerstudio-filled.svg

<svg xmlns="http://www.w3.org/2000/svg" width="256" height="256" fill="none"><rect width="256" height="256" fill="#8CD248" rx="60"/><path fill="#000" d="M128.497 127.954v45.03l-45.682-45.03 45.682-45.033 45.683 45.033zm0-106.954L20 127.954l108.497 106.951 45.687-45.036v-61.915h62.809z"/></svg>

<svg xmlns="http://www.w3.org/2000/svg" width="256" height="256" fill="none" viewBox="0 0 256 256"><rect width="256" height="256" fill="#8CD248" rx="60"/><path fill="#000" d="M128.497 127.954V172.984L82.8147 127.954L128.497 82.9211L174.18 127.954H128.497ZM128.497 21L20 127.954L128.497 234.905L174.184 189.869V127.954H236.993L128.497 21"/></svg>
